storage/app/icons/phosphoricons/bold/toolbox-bold.svg

<svg xmlns="http://www.w3.org/2000/svg" fill="currentColor" viewBox="0 0 256 256"><path d="M224 64h-44v-8a28 28 0 0 0-28-28h-48a28 28 0 0 0-28 28v8H32a20 20 0 0 0-20 20v108a20 20 0 0 0 20 20h192a20 20 0 0 0 20-20V84a20 20 0 0 0-20-20m-124-8a4 4 0 0 1 4-4h48a4 4 0 0 1 4 4v8h-56Zm120 32v32h-24v-4a12 12 0 0 0-24 0v4H84v-4a12 12 0 0 0-24 0v4H36V88ZM36 188v-44h24v4a12 12 0 0 0 24 0v-4h88v4a12 12 0 0 0 24 0v-4h24v44Z"/></svg>

<svg xmlns="http://www.w3.org/2000/svg" viewBox="0 0 256 256" fill="currentColor"><path d="M224,64H180V56a28,28,0,0,0-28-28H104A28,28,0,0,0,76,56v8H32A20,20,0,0,0,12,84V192a20,20,0,0,0,20,20H224a20,20,0,0,0,20-20V84A20,20,0,0,0,224,64ZM100,56a4,4,0,0,1,4-4h48a4,4,0,0,1,4,4v8H100ZM220,88v32H196v-4a12,12,0,0,0-24,0v4H84v-4a12,12,0,0,0-24,0v4H36V88ZM36,188V144H60v4a12,12,0,0,0,24,0v-4h88v4a12,12,0,0,0,24,0v-4h24v44Z"/></svg>
